packages/heroicons/src/prism/qr-code.svg

<svg xmlns="http://www.w3.org/2000/svg" aria-hidden="true" fill="currentColor" viewBox="0 0 16 16">
  <path d="M5 1H1v4h4V1zm1-1v6H0V0h6zM2 2h2v2H2zm13-1h-4v4h4V1zm1-1v6h-6V0h6zm-4 2h2v2h-2zm-7 9H1v4h4v-4zm1-1v6H0v-6h6zm-4 2h2v2H2zM7 0h1v1H7zm1 1h1v1H8zM7 2h1v1H7zm1 1h1v1H8zM7 4h1v1H7zm1 1h1v1H8zM7 6h1v1H7zm0 2h1v1H7zm1 1h1v1H8zm-1 1h1v1H7zm1 1h1v1H8zm-1 1h1v1H7zm1 1h1v1H8zm-1 1h1v1H7zm1 1h1v1H8zm7-7h1v1h-1zM1 8h1v1H1zm1-1h1v1H2zM0 7h1v1H0zm4 0h1v1H4zm1 1h1v1H5zm1-1h1v1H6zm3 1h1v1H9zm1-1h1v1h-1zm1 1h1v1h-1zm1-1h1v1h-1zm1 1h1v1h-1zm1-1h1v1h-1zm1 3h1v1h-1zm-6 0h1v1H9zm1-1h1v1h-1zm1 1h1v1h-1zm2 0h1v1h-1zm1-1h1v1h-1zm1 3h1v1h-1zm-6 0h1v1H9zm1-1h1v1h-1zm2 0h1v1h-1zm1 1h1v1h-1zm1-1h1v1h-1zm1 3h1v1h-1zm-5-1h1v1h-1zm1 1h1v1h-1zm1-1h1v1h-1zm1 1h1v1h-1zm-3 1h1v1h-1zm2 0h1v1h-1zm2 0h1v1h-1z"/>
</svg>

<!-- Generated by IcoMoon.io -->
<svg version="1.1" xmlns="http://www.w3.org/2000/svg" width="16" height="16" viewBox="0 0 16 16">
<title>qr-code</title>
<path fill="#4a4a4a" d="M5 1h-4v4h4v-4zM6 0v0 6h-6v-6h6zM2 2h2v2h-2zM15 1h-4v4h4v-4zM16 0v0 6h-6v-6h6zM12 2h2v2h-2zM5 11h-4v4h4v-4zM6 10v0 6h-6v-6h6zM2 12h2v2h-2zM7 0h1v1h-1zM8 1h1v1h-1zM7 2h1v1h-1zM8 3h1v1h-1zM7 4h1v1h-1zM8 5h1v1h-1zM7 6h1v1h-1zM7 8h1v1h-1zM8 9h1v1h-1zM7 10h1v1h-1zM8 11h1v1h-1zM7 12h1v1h-1zM8 13h1v1h-1zM7 14h1v1h-1zM8 15h1v1h-1zM15 8h1v1h-1zM1 8h1v1h-1zM2 7h1v1h-1zM0 7h1v1h-1zM4 7h1v1h-1zM5 8h1v1h-1zM6 7h1v1h-1zM9 8h1v1h-1zM10 7h1v1h-1zM11 8h1v1h-1zM12 7h1v1h-1zM13 8h1v1h-1zM14 7h1v1h-1zM15 10h1v1h-1zM9 10h1v1h-1zM10 9h1v1h-1zM11 10h1v1h-1zM13 10h1v1h-1zM14 9h1v1h-1zM15 12h1v1h-1zM9 12h1v1h-1zM10 11h1v1h-1zM12 11h1v1h-1zM13 12h1v1h-1zM14 11h1v1h-1zM15 14h1v1h-1zM10 13h1v1h-1zM11 14h1v1h-1zM12 13h1v1h-1zM13 14h1v1h-1zM10 15h1v1h-1zM12 15h1v1h-1zM14 15h1v1h-1z"></path>
</svg>
